flaticon/productivity-and-development/factory-2.svg

<svg xmlns="http://www.w3.org/2000/svg" width="32" height="32" viewBox="0 0 24 24">
    <path d="M24 23.726562L0 23.726562 1.230469 6.839844 7.3125 6.839844 7.765625 14.699219 13.097656 10.519531 13.097656 14.734375 18.546875 10.527344 18.546875 14.734375 24 10.527344zM1.097656 22.707031L22.980469 22.707031 22.980469 12.601562 17.527344 16.808594 17.527344 12.601562 12.078125 16.808594 12.078125 12.613281 6.859375 16.703125 6.347656 7.859375 2.179688 7.859375zM3.828125.273438L4.847656.273438 4.847656 5.097656 3.828125 5.097656zM5.8125 2.144531L6.832031 2.144531 6.832031 5.097656 5.8125 5.097656zM1.84375 2.144531L2.863281 2.144531 2.863281 5.097656 1.84375 5.097656zM1.84375 2.144531"/>
    <path d="M20.160156 17.957031L21.179688 17.957031 21.179688 20.152344 20.160156 20.152344zM14.492188 17.957031L15.511719 17.957031 15.511719 20.152344 14.492188 20.152344zM9.378906 17.957031L10.398438 17.957031 10.398438 20.152344 9.378906 20.152344zM9.378906 17.957031"/>
</svg>

<svg xmlns="http://www.w3.org/2000/svg" width="32" height="32" viewBox="0 0 24 24">
    <path d="M24 23.727H0L1.23 6.84h6.082l.454 7.86 5.332-4.18v4.214l5.449-4.207v4.207L24 10.527zm-22.902-1.02H22.98V12.602l-5.453 4.207v-4.207l-5.449 4.207v-4.196l-5.219 4.09-.511-8.844H2.18zm0 0M3.828.273h1.02v4.825h-1.02zm0 0M5.813 2.145h1.019v2.953h-1.02zm0 0M1.844 2.145h1.02v2.953h-1.02zm0 0"/>
    <path d="M20.16 17.957h1.02v2.195h-1.02zm0 0M14.492 17.957h1.02v2.195h-1.02zm0 0M9.379 17.957h1.02v2.195h-1.02zm0 0"/>
</svg>
